client/public/static/icons/Insight.svg

<svg width="24" height="24" viewBox="0 0 24 24" fill="none" xmlns="http://www.w3.org/2000/svg">
<path d="M11 19.6599H13C13.94 19.6599 14.42 19.0699 14.42 17.9399V5.8599C14.42 4.7299 13.94 4.1499 13 4.1499H11C10.07 4.1499 9.58998 4.7299 9.58998 5.8599V17.9399C9.61998 19.0699 10.1 19.6599 11 19.6599ZM16.9 19.6599H18.82C19.76 19.6599 20.24 19.1999 20.24 18.3199V9.4799C20.24 8.5999 19.76 8.1499 18.82 8.1499H16.93C16 8.1499 15.51 8.5999 15.51 9.4799V18.3199C15.51 19.1999 16 19.6599 16.93 19.6599H16.9ZM5.10998 19.6599H7.06998C8.00998 19.6599 8.48998 19.1999 8.48998 18.3199V12.7199C8.48998 11.8399 8.00998 11.3899 7.06998 11.3899H5.13998C4.20998 11.3899 3.72998 11.8399 3.72998 12.7199V18.3199C3.72998 19.1999 4.20998 19.6599 5.13998 19.6599H5.10998Z" fill="#666666"/>
</svg>

<svg id="Layer_1" data-name="Layer 1" xmlns="http://www.w3.org/2000/svg" viewBox="0 0 24 24"><defs><style>.cls-1{fill:#666;}</style></defs><path class="cls-1" d="M11,19.66H13c.94,0,1.42-.59,1.42-1.72V5.86c0-1.13-.48-1.71-1.42-1.71H11c-.93,0-1.41.58-1.41,1.71V17.94C9.62,19.07,10.1,19.66,11,19.66Zm5.9,0h1.92c.94,0,1.42-.46,1.42-1.34V9.48c0-.88-.48-1.33-1.42-1.33H16.93c-.93,0-1.42.45-1.42,1.33v8.84C15.51,19.2,16,19.66,16.93,19.66Zm-11.79,0H7.07c.94,0,1.42-.46,1.42-1.34v-5.6c0-.88-.48-1.33-1.42-1.33H5.14c-.93,0-1.41.45-1.41,1.33v5.6C3.73,19.2,4.21,19.66,5.14,19.66Z"/></svg>
